docs/assets/agentplane-favicon.svg

<svg fill="none" height="64" viewBox="0 0 64 64" width="64" xmlns="http://www.w3.org/2000/svg"><path d="m44 4c8.8366 0 16 7.1634 16 16v24c0 8.8366-7.1634 16-16 16h-24c-8.8366 0-16-7.1634-16-16v-24c0-8.8366 7.1634-16 16-16zm-9.7158 4.91992-12.2881 46.08008h7.7441l12.2881-46.08008z" fill="#000"/></svg>

<svg width="64" height="64" viewBox="0 0 64 64" fill="none" xmlns="http://www.w3.org/2000/svg">
<path d="M44 4C52.8366 4 60 11.1634 60 20V44C60 52.8366 52.8366 60 44 60H20C11.1634 60 4 52.8366 4 44V20C4 11.1634 11.1634 4 20 4H44ZM34.2842 8.91992L21.9961 55H29.7402L42.0283 8.91992H34.2842Z" fill="black"/>
</svg>
